X:69
T:Unknown Jig
R:jig
N:Remembered from hearing Carthy & Swarbrick at a folk club in Crewe, 
Cheshire 
N:around 1969(?). Swarb played it on Mandolin.
M:6/8
L:1/8
Q:1/4=150
K:G
A2Bc>Bc|D>EDc3|BdBcAF|GBAGFG|A2Bc>Bc|DEDc3|BdBcAF|G>BAG3:|
|:F>GAAFD|DEDc3|F>GA/2B/2AFD|E>DE/2F/2GFE|F>GA/2B/2AFD|DEDc3|BdBcAF|
(3G/2G/2G/2G.G.G3:|

